X:8
T: Peek-a-boo Waltz
C: Traditional
M: 3/4
R: Walt5
Q:1/4=150
L:1/8
N:Bonanzaville Jam
K:D
FG|:"D"A2f2e2|"G"d2c2B2|"D"A2F2B2|A4FG|A2f2e2|"E"d2c2d2|
"A"e3d ef|e4FG|"D"A2f2e2|"G"d2c2B2|"D"A2F2B2|
A4A^A|"G"B2g2f2|"A"e2B2c2|"D"d3c de|"D"d4FG:|
|:"D"A3zgz|A3d cd|"G"B3zgz|"E"B6|"A"c3dc2|
"G"B3cB2|"D"A2F2B2|A4FG|A3zfz|A3d cd|
"G"B3zgz|"E"B6|"A"c3BA2|f2c2e2|"D"d3c de|d6:|]
